X:13
T:Oh Callar Spirlings (variation 12)
C:Domenico Corri
S:Jack Campin <abc:purr.demon.co.uk> abcusers 2004-12-6
m:S = (6:4:6
V:1
V:2
M:3/4
L:1/16
Q:1/4=96
K:D Minor
[V:1] "^F."a2|Szfad'af Szfad'af Szga^c'ag|Szfad'af Szfad'af              Szfg=bgf   |
[V:2]      z2| D4       f'4      A4      | D4       f'4                   G4        |
%
[V:1]         Szegc'ge Szegc'ge Szfg=bgf |Szegc'ge Szegc'ge              Szga^c'ag  |
[V:2]          C4       e'4      G4      | C4       e'4                   A4        |
%
[V:1] "^P."   Szfad'af Szfad'af Szga^c'ag|Szfad'af Szfad'af              Szfad'af   |
[V:2]          D4       f'4      A4      | D4       f'4                   F4        |
%
[V:1] "^F."   Szdgbgd  Szdfafd  Sz^ceace |Szdfafd  SzFAdAF y [K:Dm bass] SzF,A,DA,F,|{^C,}D,4  D,4  D,4 |D,8 |]
[V:2]          G4       f'4      e'4     | d'4      D4     y [K:Dm bass]  D,4       |     D,,4 D,,4 D,,4|D,,8|]
